!!!ONB: MCCC : IPH0168_02 : Extracted Monophonic Melody
!!!COM: Hindemith, Paul
!!!OPR: Viola Sonata
!!!OMV: 2
!!!SCT: Op.11 No.4
!!!ODT: 1919///
**kern
*IViola
*clefC3
*k[b-e-a-d-g-c-]
*G-:
*M2/4
*MM100
=1-
[2b-
=2
4b-]
(4b-
=3
8cc-L
8dd-
8b-
8a-J)
=4
*M3/4
(8a-L
8b-J)
4e-
4e-
=5
(8e-L
8fJ)
4g-
4g-
=6
*M2/4
(8g-L
8a-J)
4f
=7
4b-
(4b-
=8
8cc-L
8dd-
8b-
8a-J)
=9
*M3/4
(8a-L
8b-J)
4e-
4e-
=10
(8e-L
8fJ)
4g-
4g-
=11
*M2/4
(8g-L
8a-J)
([4e-
=12
4.e-]
8f)
=13
(8gL
8b
8a
8a-J)
=14
*M3/4
(q8a-
8g~L)
8f~J
(4.g
8a)
=15
*M2/4
(8bL
8ee
8dd
8dd-J)
=16
*M3/4
(q8dd-
8cc~L)
8b-~J
4.cc
(8cc#
=17
8bL
8aJ
8gL
8aJ
8b-L)
(8cc#J
=18
8bL
8aJ
8gL
8aJ
8b-L)
(8cc#J
=19
*M2/4
8bL
8aJ
8gL
8aJ)
=20
2a#
=21
(4b
8aL
8g#J)
=22
*M3/4
(8g#L
8aJ
4A)
4r
=23
2.r
=24
*M2/4
4r
(4ee-
=25
4ee--
8dd-L
8ccJ)
=26
*M3/4
(4cc-
4b-
4a
=27
4.b-)
(8a-L
8g-
8fJ
=28
*M2/4
4e-
4d)
=29
4B-
(4B-
=30
8c-L
8d-
8B-
8A-J)
=31
*M3/4
(8A-L
8B-J)
4E-
4E-
=32
(8E-L
8FJ)
4G-
4G-
=33
*2/4
(8G-L
8A-J)
4E-
*clefG2
=||34
*M6/8
8r
8ee-L
8ffJ
q16gg-L
q16aa-J
8gg-L
8ff
8ee-J
=35
[4.bb-
8bb-]L
8aa-
8bb-J
=36
8ddd-L
8bb-
q16aa-L
q16bb-J
8aa-J
8gg-L
8b-
8ee-J
=37
[4.dd-
8dd-]L
8ee-
8dd-J
=38
8r
(8ffL
8gg-J
8aa-L
q16gg-L
q16aa-J
8gg-
8ffJ
=39
8gg-L
8ff
8ee-J)
(8ffL
8gg-
8aa-J
=40
8gg-L
q16ffL
q16gg-J
8ff
8ee-J
8ffL
8gg-
8aa-J)
=41
2.bb-
=42
(4.aa
[4.gg#
=43
4.gg#_
8.gg#]L
8.ggJ)
=44
(8gg-L
8ff
8ee-J
4ee)
([8a-
=45
8a-]L
8a
8b-J
[4.b
=46
8b]L)
(8cc#
8ccJ
[4.b
=47
8b]L)
(8cc#
8ccJ
[4.b
=48
8b]L)
(8cc#
8dd#J
q16ee#L
q16ff#J
8ee#L
8dd#
8cc#J)
=49
4.dd#
4.r
=50
2.r
*clefC3
=51
4.r
4r
([8a
=52
8a]L
8b-
8aJ
4a-)
([8a-
=53
8a-]L
8b--
8a-J
4g)
(8g
=54
[4.f#
8f#]L
8g
8aJ
=55
[4.e#
8e#]L)
(8f#
8g#J
=56
q16aL
q16bJ
8aL
8g#
8f#J)
[4.cc#
=57
8cc#]L
(8b
8cc#J
8eeL
8cc#
q16bL
q16cc#J
8bJ)
=58
(8aL
8c#
8f#J
[4.e
=59
8e]L)
(8fn
8gJ
[4.f
=60
8f]L)
*clefG2
(8ff
8gg-J
8aa-L
q16gg-L
q16aa-J
8gg-
8ffJ
=61
8gg-L
8ff
8ee-J)
(8ffL
8gg-
8aa-J
=62
8gg-L
8ff
8ee-J)
(8ffL
8gg-
8aa-J)
=63
4.r
(8ffL
8gg-
8aa-J)
=64
4.r
(8ffL
8gg-
8aa-J)
=65
8r
(8gg-L
8aa-J)
4r
16aaL'
16bbJ'
=||66
*k[]
*C:
*M2/4
4.ccc#^
(q16bbL
q16ccc#J
16bb'L)
16aa'J
=67
4.bb^
(q16aanL
q16bbJ
16aa'L)
16gg'J
*clefC3
=68
4B~
4B~
=69
(8cL
8d
8B
8AJ)
=70
(8GL
8AJ)
[4E
=71
4E]
(8.E-L
16dJ)
=72
4.d^
(q16cL
q16dJ
16c'L
16B-'J)
=73
4.c^
(q16B-L
q16cJ
16B-'L
16A-'J)
=74
4.B-^
(q16A-L
q16B-J
16A-'L
16G'J)
=75
16FL
16E
16F
16GJ
8AL
(24B-
24B
24cJ
=76
16c#L
16d')
[8d#J
16d#]L
16c#
16B
16AJ
=77
[2G
=78
4G]
4r
*clefG2
=79
4r
8r
(16cc#'L
16dd#'J)
=80
4.ee#
(q16dd#L
q16ee#J
16dd#'L
16cc#'J)
=81
8dd#L
(q16ddL
q16eeJ
16dd'
16cc#'J)
16ccL
16b
16a
16bJ
=82
4cc#
8r
(16ff'L
16gg'J)
=83
4aa-
(q16gg-L
q16aa-J
16gg-'L
16ff')
[8gg-J
=84
16gg-]L
16ff
16ee-
16ffJ
(q16ee-L
q16ffJ
16ee-L)
16dd
16cc
16ddJ
=85
16ee-L
16ff
16gg-
16ffJ
16ee-L
16ff
(q16ee-L
q16ffJ
16ee-)
16ddJ
=86
16ccL
16dd
16ee-
16ffJ
16gg-L
16ff
16ee-
16ffJ
=87
(q16ee-L
q16ffJ
16ee-L)
16dd
16cc
16ddJ
16ee-L
16ff
16gg-
16ffJ
=88
16ee-L
16dd
16cc#
16bnJ
*clefC3
16aL
16g#
16f#
16e#J
=89
16d#L
16d
16c#
16BJ
16AL
16G#
16F#
16FJ
=90
16EnL
16DJ
[4.C
=91
4C]
(16E'L
16D')
[8CJ
=92
4C]
(16E'L
16D')
[8CJ
=93
4.C]
(16C#'L
16D'J)
=94
8E-L
(24E
24F
24F#J
4G)
=95
(24GL
24A
24B
[8cJ
24cLL])
(24d
24eJ
16fL
16f#JJ)
*clefG2
=96
4.ccc#
(q16bbL
q16ccc#J
16bb'L)
16aa'J
=97
4.bb
(q16aaL
q16bbJ
16aa'L)
16gg'J
*clefC3
=98
4B
4B
=99
(8cL
8d
8B
8AJ)
=100
(8GL
8AJ)
[4E
=101
4E]
(8.E-L
16dJ)
=102
4.dd^
(q16ccL
q16ddJ
16cc'L
16b-'J)
=103
4.cc^
(q16b-L
q16ccJ
16b-'L
16a-'J)
=104
4.b-^
(q16a-L
q16b-J
16a-'L
16g'J)
=105
16fL
16en
[8fJ
8f]L
(24e
24f
24f#J)
=106
16gL
16f#
[8gJ
8g]L
(24f#
24g
24g#J
=107
8aL)
[8bJ
16b]L
16a#
16g#
16a#J
=108
16bL
16cc#
16dd
16cc#J
16bL
16cc#
(q16bL
q16cc#J
16b)
16a#J
=109
16g#L
16a#
16b
16cc#J
16ddL
16cc#
16b
16cc#J
=110
(q16bL
q16cc#J
16bL)
16a#
16g#
16a#J
16bL
16cc#
16dd
16cc#J
=111
16bL
16cc#
(q16bL
q16cc#J
16b)
16a#J
16g#L
16a
16a#
16bJ
*clefG2
=112
*M1/4
16ccL
16cc#
16dd
16dd#J
=||113
*k[b-e-a-]
*E-:
*M4/4
12eeL
12ff
12ff#J
(4gg
4ff
4ee-)
=114
(8ddL
8cc
8dd
8ee-J)
(8g
4dd
8cc)
=115
4f
4a
4b
4cc#
=116
4.ff
8ee-
4cc#
4dd
=117
*M3/4
(4dd#
4cc#
4b)
*clefC3
=118
*M4/4
(8a#L
8g#
8a#
8bJ)
(8d#
4a-
8g#)
=119
4c#
4r
2r
=120
2r
4r
*clefG2
(8bL
8ccJ)
=121
*M2/4
(8ddL
8gg-
8ff
8ee-J)
=122
*M3/4
(q8dd#
8cc#L)
8bJ
(4.cc#
8dd#)
=123
*M2/4
(8eeL
8aa-
8gg
8ffJ)
=124
*M3/4
(q8ff
8ee-L)
8dd-J
4.ee-
(8ff^
=125
8ff#L
8ee
8cc#
8ee
8ff#)
(8aa^J
=126
8ff#L
8ee
8cc#
8ee
8ff#)
(8aa^J
=127
8ff#L
8ee
8cc#
8ee
8ee#
8ff#J)
=128
4ggn
4fff
4eee-
=129
*M4/4
16dddL
16ff#
16ccc
16ff#J
16dddL
16ff#
16eee-
16ff#J
8ggL
8dddJ
24aa-L
24gg
24ff
8cccJ
=130
4ff
(4b-
4cc
4dd)
=131
(4.ff
8ee-)
(4cc#
4dd)
=132
*3/4
([2.ff#
=133
*M4/4
8ff#]L
8ee
8ff#
8gg#J)
(8a#
4dd#
8cc#)
=134
*M3/4
4ccn
(8e-
4b--
8a-)
=135
(4ee
4dd#
4cc#)
=136
*M2/4
(8b#L
8a#
8b#
8cc#J)
=137
*M3/4
(4gg#
8ff#L
8eeJ)
(8dd#^L
8cc#J
=138
8dd#L
8eeJ)
(8dd#^L
8cc#
8dd#
8eeJ)
=||139
*k[f#c#g#]
*A:
*M3/2
4.gg#
[8gg#
4gg#]
8aaL
[8bbJ
8bb]
4gg#
8ff#
=140
8eeL
8ff#J
2cc
8ddL
8eeJ
(4ff#'
4ff#')
=141
8ff#L
8gg#J
4ee
2r
2r
*clefC3
=142
4.G#
[8G#
4G#]
8AL
[8BJ
8B]
4G#
8F#
=143
8EL
8F#J
2C
8DL
8EJ
(4F#'
4F#')
=144
8F#L
8G#J
2E
(20DL
20E
20F#
20G#
20AJ
16BL
16c
16d
16eJ
16f#L
16g#
16a
16bJ)
*clefG2
=145
2cc
4cc#
([4dd
8dd]L
8dd#'J)
[4ee
=146
4ee]
4ee#
(4.ff#
8ff##')
[2gg#
=147
4gg#]
4gg#
(8aaL
8bb
8gg#
8ff#J)
(8eeL
8ff#J
4b#)
=||148
*k[f#c#g#d#]
*c#:
*M4/4
4cc#
4r
4r
4r
==
*-
